images/50635956.svg

<?xml version="1.0" encoding="UTF-8"?>
<svg xmlns="http://www.w3.org/2000/svg" xmlns:xlink="http://www.w3.org/1999/xlink" width="300pt" height="300pt" viewBox="0 0 300 300" version="1.1">
<defs>
<g>
<symbol overflow="visible" id="glyph0-0">
<path style="stroke:none;" d="M 0.453125 1.59375 L 0.453125 -6.34375 L 4.953125 -6.34375 L 4.953125 1.59375 Z M 0.953125 1.09375 L 4.453125 1.09375 L 4.453125 -5.84375 L 0.953125 -5.84375 Z M 0.953125 1.09375 "/>
</symbol>
<symbol overflow="visible" id="glyph0-1">
<path style="stroke:none;" d="M 3.546875 -5.953125 C 2.898438 -5.953125 2.382812 -5.710938 2 -5.234375 C 1.625 -4.753906 1.4375 -4.101562 1.4375 -3.28125 C 1.4375 -2.445312 1.625 -1.789062 2 -1.3125 C 2.382812 -0.832031 2.898438 -0.59375 3.546875 -0.59375 C 4.191406 -0.59375 4.703125 -0.832031 5.078125 -1.3125 C 5.453125 -1.789062 5.640625 -2.445312 5.640625 -3.28125 C 5.640625 -4.101562 5.453125 -4.753906 5.078125 -5.234375 C 4.703125 -5.710938 4.191406 -5.953125 3.546875 -5.953125 Z M 3.546875 -6.6875 C 4.460938 -6.6875 5.195312 -6.375 5.75 -5.75 C 6.300781 -5.132812 6.578125 -4.3125 6.578125 -3.28125 C 6.578125 -2.238281 6.300781 -1.410156 5.75 -0.796875 C 5.195312 -0.179688 4.460938 0.125 3.546875 0.125 C 2.617188 0.125 1.878906 -0.179688 1.328125 -0.796875 C 0.773438 -1.410156 0.5 -2.238281 0.5 -3.28125 C 0.5 -4.3125 0.773438 -5.132812 1.328125 -5.75 C 1.878906 -6.375 2.617188 -6.6875 3.546875 -6.6875 Z M 3.546875 -6.6875 "/>
</symbol>
<symbol overflow="visible" id="glyph0-2">
<path style="stroke:none;" d="M 0.890625 -6.5625 L 2.078125 -6.5625 L 4.984375 -1.078125 L 4.984375 -6.5625 L 5.84375 -6.5625 L 5.84375 0 L 4.65625 0 L 1.75 -5.484375 L 1.75 0 L 0.890625 0 Z M 0.890625 -6.5625 "/>
</symbol>
<symbol overflow="visible" id="glyph0-3">
<path style="stroke:none;" d="M 0.890625 -6.5625 L 1.765625 -6.5625 L 1.765625 -3.875 L 5 -3.875 L 5 -6.5625 L 5.890625 -6.5625 L 5.890625 0 L 5 0 L 5 -3.125 L 1.765625 -3.125 L 1.765625 0 L 0.890625 0 Z M 0.890625 -6.5625 "/>
</symbol>
</g>
</defs>
<g id="surface15457">
<rect x="0" y="0" width="300" height="300" style="fill:rgb(100%,100%,100%);fill-opacity:1;stroke:none;"/>
<path style="fill:none;stroke-width:1.2;stroke-linecap:butt;stroke-linejoin:miter;stroke:rgb(100%,0%,0%);stroke-opacity:1;stroke-miterlimit:10;" d="M 99.511719 180.324219 L 101.851562 171.351562 "/>
<path style="fill:none;stroke-width:1.2;stroke-linecap:butt;stroke-linejoin:miter;stroke:rgb(0%,0%,0%);stroke-opacity:1;stroke-miterlimit:10;" d="M 101.851562 171.351562 L 104.191406 162.382812 "/>
<path style="fill:none;stroke-width:1.2;stroke-linecap:butt;stroke-linejoin:miter;stroke:rgb(100%,0%,0%);stroke-opacity:1;stroke-miterlimit:10;" d="M 95.289062 179.222656 L 97.628906 170.253906 "/>
<path style="fill:none;stroke-width:1.2;stroke-linecap:butt;stroke-linejoin:miter;stroke:rgb(0%,0%,0%);stroke-opacity:1;stroke-miterlimit:10;" d="M 97.628906 170.253906 L 99.96875 161.28125 "/>
<path style=" stroke:none;fill-rule:nonzero;fill:rgb(100%,100%,100%);fill-opacity:1;" d="M 93.402344 174.273438 L 101.402344 174.273438 L 101.402344 185.273438 L 93.402344 185.273438 Z M 93.402344 174.273438 "/>
<g style="fill:rgb(100%,0%,0%);fill-opacity:1;">
  <use xlink:href="#glyph0-1" x="93.402344" y="182.936523"/>
</g>
<path style="fill:none;stroke-width:1.2;stroke-linecap:butt;stroke-linejoin:miter;stroke:rgb(0%,0%,0%);stroke-opacity:1;stroke-miterlimit:10;" d="M 102.078125 161.832031 L 95.480469 155.320312 "/>
<path style="fill:none;stroke-width:1.2;stroke-linecap:butt;stroke-linejoin:miter;stroke:rgb(0%,0%,100%);stroke-opacity:1;stroke-miterlimit:10;" d="M 95.480469 155.320312 L 88.882812 148.808594 "/>
<path style="fill:none;stroke-width:1.2;stroke-linecap:butt;stroke-linejoin:miter;stroke:rgb(0%,0%,0%);stroke-opacity:1;stroke-miterlimit:10;" d="M 102.078125 161.832031 L 119.957031 156.914062 "/>
<path style="fill:none;stroke-width:1.2;stroke-linecap:butt;stroke-linejoin:miter;stroke:rgb(0%,0%,100%);stroke-opacity:1;stroke-miterlimit:10;" d="M 88.882812 148.808594 L 79.941406 151.269531 "/>
<path style="fill:none;stroke-width:1.2;stroke-linecap:butt;stroke-linejoin:miter;stroke:rgb(0%,0%,0%);stroke-opacity:1;stroke-miterlimit:10;" d="M 79.941406 151.269531 L 71.003906 153.730469 "/>
<path style=" stroke:none;fill-rule:nonzero;fill:rgb(100%,100%,100%);fill-opacity:1;" d="M 81.882812 143.308594 L 95.882812 143.308594 L 95.882812 154.308594 L 81.882812 154.308594 Z M 81.882812 143.308594 "/>
<g style="fill:rgb(0%,0%,100%);fill-opacity:1;">
  <use xlink:href="#glyph0-2" x="81.882812" y="151.97168"/>
  <use xlink:href="#glyph0-3" x="88.860352" y="151.97168"/>
</g>
<path style="fill:none;stroke-width:1.2;stroke-linecap:butt;stroke-linejoin:miter;stroke:rgb(0%,0%,0%);stroke-opacity:1;stroke-miterlimit:10;" d="M 71.003906 153.730469 L 57.804688 140.707031 "/>
<path style="fill:none;stroke-width:1.2;stroke-linecap:butt;stroke-linejoin:miter;stroke:rgb(0%,0%,0%);stroke-opacity:1;stroke-miterlimit:10;" d="M 66.621094 155.53125 L 56.0625 145.113281 "/>
<path style="fill:none;stroke-width:1.2;stroke-linecap:butt;stroke-linejoin:miter;stroke:rgb(0%,0%,0%);stroke-opacity:1;stroke-miterlimit:10;" d="M 66.324219 171.671875 L 71.003906 153.730469 "/>
<path style="fill:none;stroke-width:1.2;stroke-linecap:butt;stroke-linejoin:miter;stroke:rgb(0%,0%,0%);stroke-opacity:1;stroke-miterlimit:10;" d="M 57.804688 140.707031 L 39.929688 145.625 "/>
<path style="fill:none;stroke-width:1.2;stroke-linecap:butt;stroke-linejoin:miter;stroke:rgb(0%,0%,0%);stroke-opacity:1;stroke-miterlimit:10;" d="M 39.929688 145.625 L 35.25 163.566406 "/>
<path style="fill:none;stroke-width:1.2;stroke-linecap:butt;stroke-linejoin:miter;stroke:rgb(0%,0%,0%);stroke-opacity:1;stroke-miterlimit:10;" d="M 43.683594 148.519531 L 39.9375 162.875 "/>
<path style="fill:none;stroke-width:1.2;stroke-linecap:butt;stroke-linejoin:miter;stroke:rgb(0%,0%,0%);stroke-opacity:1;stroke-miterlimit:10;" d="M 35.25 163.566406 L 48.449219 176.589844 "/>
<path style="fill:none;stroke-width:1.2;stroke-linecap:butt;stroke-linejoin:miter;stroke:rgb(0%,0%,0%);stroke-opacity:1;stroke-miterlimit:10;" d="M 48.449219 176.589844 L 66.324219 171.671875 "/>
<path style="fill:none;stroke-width:1.2;stroke-linecap:butt;stroke-linejoin:miter;stroke:rgb(0%,0%,0%);stroke-opacity:1;stroke-miterlimit:10;" d="M 49.078125 171.890625 L 63.378906 167.957031 "/>
<path style="fill:none;stroke-width:1.2;stroke-linecap:butt;stroke-linejoin:miter;stroke:rgb(0%,0%,0%);stroke-opacity:1;stroke-miterlimit:10;" d="M 119.957031 156.914062 L 133.15625 169.933594 "/>
<path style="fill:none;stroke-width:1.2;stroke-linecap:butt;stroke-linejoin:miter;stroke:rgb(0%,0%,0%);stroke-opacity:1;stroke-miterlimit:10;" d="M 133.15625 169.933594 L 142.09375 167.476562 "/>
<path style="fill:none;stroke-width:1.2;stroke-linecap:butt;stroke-linejoin:miter;stroke:rgb(0%,0%,100%);stroke-opacity:1;stroke-miterlimit:10;" d="M 142.09375 167.476562 L 151.03125 165.015625 "/>
<path style="fill:none;stroke-width:1.2;stroke-linecap:butt;stroke-linejoin:miter;stroke:rgb(0%,0%,100%);stroke-opacity:1;stroke-miterlimit:10;" d="M 151.03125 165.015625 L 157.5625 147.660156 "/>
<path style="fill:none;stroke-width:1.2;stroke-linecap:butt;stroke-linejoin:miter;stroke:rgb(0%,0%,0%);stroke-opacity:1;stroke-miterlimit:10;" d="M 165.519531 176.585938 L 158.277344 170.800781 "/>
<path style="fill:none;stroke-width:1.2;stroke-linecap:butt;stroke-linejoin:miter;stroke:rgb(0%,0%,100%);stroke-opacity:1;stroke-miterlimit:10;" d="M 158.277344 170.800781 L 151.03125 165.015625 "/>
<path style=" stroke:none;fill-rule:nonzero;fill:rgb(100%,100%,100%);fill-opacity:1;" d="M 148.03125 159.515625 L 155.03125 159.515625 L 155.03125 170.515625 L 148.03125 170.515625 Z M 148.03125 159.515625 "/>
<g style="fill:rgb(0%,0%,100%);fill-opacity:1;">
  <use xlink:href="#glyph0-2" x="148.03125" y="168.178711"/>
</g>
<path style="fill:none;stroke-width:1.2;stroke-linecap:butt;stroke-linejoin:miter;stroke:rgb(0%,0%,100%);stroke-opacity:1;stroke-miterlimit:10;" d="M 157.5625 147.660156 L 166.820312 148.082031 "/>
<path style="fill:none;stroke-width:1.2;stroke-linecap:butt;stroke-linejoin:miter;stroke:rgb(0%,0%,0%);stroke-opacity:1;stroke-miterlimit:10;" d="M 166.820312 148.082031 L 176.082031 148.507812 "/>
<path style="fill:none;stroke-width:1.2;stroke-linecap:butt;stroke-linejoin:miter;stroke:rgb(0%,0%,100%);stroke-opacity:1;stroke-miterlimit:10;" d="M 159.214844 152.105469 L 166.621094 152.441406 "/>
<path style="fill:none;stroke-width:1.2;stroke-linecap:butt;stroke-linejoin:miter;stroke:rgb(0%,0%,0%);stroke-opacity:1;stroke-miterlimit:10;" d="M 166.621094 152.441406 L 174.03125 152.78125 "/>
<path style=" stroke:none;fill-rule:nonzero;fill:rgb(100%,100%,100%);fill-opacity:1;" d="M 154.5625 142.160156 L 161.5625 142.160156 L 161.5625 153.160156 L 154.5625 153.160156 Z M 154.5625 142.160156 "/>
<g style="fill:rgb(0%,0%,100%);fill-opacity:1;">
  <use xlink:href="#glyph0-2" x="154.5625" y="150.823242"/>
</g>
<path style="fill:none;stroke-width:1.2;stroke-linecap:butt;stroke-linejoin:miter;stroke:rgb(0%,0%,0%);stroke-opacity:1;stroke-miterlimit:10;" d="M 176.082031 148.507812 L 181.003906 166.382812 "/>
<path style="fill:none;stroke-width:1.2;stroke-linecap:butt;stroke-linejoin:miter;stroke:rgb(0%,0%,0%);stroke-opacity:1;stroke-miterlimit:10;" d="M 176.082031 148.507812 L 187.652344 134.019531 "/>
<path style="fill:none;stroke-width:1.2;stroke-linecap:butt;stroke-linejoin:miter;stroke:rgb(0%,0%,0%);stroke-opacity:1;stroke-miterlimit:10;" d="M 181.003906 166.382812 L 165.519531 176.585938 "/>
<path style="fill:none;stroke-width:1.2;stroke-linecap:butt;stroke-linejoin:miter;stroke:rgb(0%,0%,0%);stroke-opacity:1;stroke-miterlimit:10;" d="M 177.054688 163.761719 L 164.667969 171.921875 "/>
<path style="fill:none;stroke-width:1.2;stroke-linecap:butt;stroke-linejoin:miter;stroke:rgb(0%,0%,0%);stroke-opacity:1;stroke-miterlimit:10;" d="M 181.003906 166.382812 L 198.355469 172.910156 "/>
<path style="fill:none;stroke-width:1.2;stroke-linecap:butt;stroke-linejoin:miter;stroke:rgb(0%,0%,0%);stroke-opacity:1;stroke-miterlimit:10;" d="M 198.355469 172.910156 L 212.6875 161.148438 "/>
<path style="fill:none;stroke-width:1.2;stroke-linecap:butt;stroke-linejoin:miter;stroke:rgb(0%,0%,0%);stroke-opacity:1;stroke-miterlimit:10;" d="M 202.558594 175.105469 L 214.023438 165.695312 "/>
<path style="fill:none;stroke-width:1.2;stroke-linecap:butt;stroke-linejoin:miter;stroke:rgb(0%,0%,0%);stroke-opacity:1;stroke-miterlimit:10;" d="M 201.378906 191.207031 L 198.355469 172.910156 "/>
<path style="fill:none;stroke-width:1.2;stroke-linecap:butt;stroke-linejoin:miter;stroke:rgb(0%,0%,0%);stroke-opacity:1;stroke-miterlimit:10;" d="M 212.6875 161.148438 L 230.042969 167.675781 "/>
<path style="fill:none;stroke-width:1.2;stroke-linecap:butt;stroke-linejoin:miter;stroke:rgb(0%,0%,0%);stroke-opacity:1;stroke-miterlimit:10;" d="M 230.042969 167.675781 L 233.066406 185.96875 "/>
<path style="fill:none;stroke-width:1.2;stroke-linecap:butt;stroke-linejoin:miter;stroke:rgb(0%,0%,0%);stroke-opacity:1;stroke-miterlimit:10;" d="M 234.648438 168.792969 L 237.066406 183.425781 "/>
<path style="fill:none;stroke-width:1.2;stroke-linecap:butt;stroke-linejoin:miter;stroke:rgb(0%,0%,0%);stroke-opacity:1;stroke-miterlimit:10;" d="M 244.371094 155.910156 L 230.042969 167.675781 "/>
<path style="fill:none;stroke-width:1.2;stroke-linecap:butt;stroke-linejoin:miter;stroke:rgb(0%,0%,0%);stroke-opacity:1;stroke-miterlimit:10;" d="M 233.066406 185.96875 L 241.742188 189.230469 "/>
<path style="fill:none;stroke-width:1.2;stroke-linecap:butt;stroke-linejoin:miter;stroke:rgb(0%,0%,100%);stroke-opacity:1;stroke-miterlimit:10;" d="M 241.742188 189.230469 L 250.417969 192.496094 "/>
<path style="fill:none;stroke-width:1.2;stroke-linecap:butt;stroke-linejoin:miter;stroke:rgb(0%,0%,0%);stroke-opacity:1;stroke-miterlimit:10;" d="M 233.066406 185.96875 L 218.734375 197.734375 "/>
<path style="fill:none;stroke-width:1.2;stroke-linecap:butt;stroke-linejoin:miter;stroke:rgb(0%,0%,100%);stroke-opacity:1;stroke-miterlimit:10;" d="M 250.417969 192.496094 L 257.585938 186.613281 "/>
<path style="fill:none;stroke-width:1.2;stroke-linecap:butt;stroke-linejoin:miter;stroke:rgb(0%,0%,0%);stroke-opacity:1;stroke-miterlimit:10;" d="M 257.585938 186.613281 L 264.75 180.730469 "/>
<path style="fill:none;stroke-width:1.2;stroke-linecap:butt;stroke-linejoin:miter;stroke:rgb(0%,0%,100%);stroke-opacity:1;stroke-miterlimit:10;" d="M 249.085938 187.949219 L 254.816406 183.242188 "/>
<path style="fill:none;stroke-width:1.2;stroke-linecap:butt;stroke-linejoin:miter;stroke:rgb(0%,0%,0%);stroke-opacity:1;stroke-miterlimit:10;" d="M 254.816406 183.242188 L 260.546875 178.535156 "/>
<path style=" stroke:none;fill-rule:nonzero;fill:rgb(100%,100%,100%);fill-opacity:1;" d="M 247.417969 186.996094 L 254.417969 186.996094 L 254.417969 197.996094 L 247.417969 197.996094 Z M 247.417969 186.996094 "/>
<g style="fill:rgb(0%,0%,100%);fill-opacity:1;">
  <use xlink:href="#glyph0-2" x="247.417969" y="195.65918"/>
</g>
<path style="fill:none;stroke-width:1.2;stroke-linecap:butt;stroke-linejoin:miter;stroke:rgb(0%,0%,0%);stroke-opacity:1;stroke-miterlimit:10;" d="M 264.75 180.730469 L 261.726562 162.4375 "/>
<path style="fill:none;stroke-width:1.2;stroke-linecap:butt;stroke-linejoin:miter;stroke:rgb(0%,0%,0%);stroke-opacity:1;stroke-miterlimit:10;" d="M 261.726562 162.4375 L 244.371094 155.910156 "/>
<path style="fill:none;stroke-width:1.2;stroke-linecap:butt;stroke-linejoin:miter;stroke:rgb(0%,0%,0%);stroke-opacity:1;stroke-miterlimit:10;" d="M 258.453125 165.867188 L 244.570312 160.644531 "/>
<path style="fill:none;stroke-width:1.2;stroke-linecap:butt;stroke-linejoin:miter;stroke:rgb(0%,0%,0%);stroke-opacity:1;stroke-miterlimit:10;" d="M 218.734375 197.734375 L 201.378906 191.207031 "/>
<path style="fill:none;stroke-width:1.2;stroke-linecap:butt;stroke-linejoin:miter;stroke:rgb(0%,0%,0%);stroke-opacity:1;stroke-miterlimit:10;" d="M 218.535156 192.996094 L 204.652344 187.773438 "/>
<path style="fill:none;stroke-width:1.2;stroke-linecap:butt;stroke-linejoin:miter;stroke:rgb(0%,0%,0%);stroke-opacity:1;stroke-miterlimit:10;" d="M 187.652344 134.019531 L 196.820312 135.40625 "/>
<path style="fill:none;stroke-width:1.2;stroke-linecap:butt;stroke-linejoin:miter;stroke:rgb(0%,0%,100%);stroke-opacity:1;stroke-miterlimit:10;" d="M 196.820312 135.40625 L 205.988281 136.796875 "/>
<path style="fill:none;stroke-width:1.2;stroke-linecap:butt;stroke-linejoin:miter;stroke:rgb(0%,0%,0%);stroke-opacity:1;stroke-miterlimit:10;" d="M 190.140625 129.984375 L 197.472656 131.09375 "/>
<path style="fill:none;stroke-width:1.2;stroke-linecap:butt;stroke-linejoin:miter;stroke:rgb(0%,0%,100%);stroke-opacity:1;stroke-miterlimit:10;" d="M 197.472656 131.09375 L 204.808594 132.207031 "/>
<path style="fill:none;stroke-width:1.2;stroke-linecap:butt;stroke-linejoin:miter;stroke:rgb(0%,0%,0%);stroke-opacity:1;stroke-miterlimit:10;" d="M 180.894531 116.753906 L 187.652344 134.019531 "/>
<path style="fill:none;stroke-width:1.2;stroke-linecap:butt;stroke-linejoin:miter;stroke:rgb(0%,0%,100%);stroke-opacity:1;stroke-miterlimit:10;" d="M 205.988281 136.796875 L 211.773438 129.550781 "/>
<path style="fill:none;stroke-width:1.2;stroke-linecap:butt;stroke-linejoin:miter;stroke:rgb(0%,0%,0%);stroke-opacity:1;stroke-miterlimit:10;" d="M 211.773438 129.550781 L 217.558594 122.308594 "/>
<path style=" stroke:none;fill-rule:nonzero;fill:rgb(100%,100%,100%);fill-opacity:1;" d="M 202.988281 131.296875 L 209.988281 131.296875 L 209.988281 142.296875 L 202.988281 142.296875 Z M 202.988281 131.296875 "/>
<g style="fill:rgb(0%,0%,100%);fill-opacity:1;">
  <use xlink:href="#glyph0-2" x="202.988281" y="139.959961"/>
</g>
<path style="fill:none;stroke-width:1.2;stroke-linecap:butt;stroke-linejoin:miter;stroke:rgb(0%,0%,0%);stroke-opacity:1;stroke-miterlimit:10;" d="M 217.558594 122.308594 L 210.796875 105.042969 "/>
<path style="fill:none;stroke-width:1.2;stroke-linecap:butt;stroke-linejoin:miter;stroke:rgb(0%,0%,0%);stroke-opacity:1;stroke-miterlimit:10;" d="M 212.820312 122.171875 L 207.410156 108.359375 "/>
<path style="fill:none;stroke-width:1.2;stroke-linecap:butt;stroke-linejoin:miter;stroke:rgb(0%,0%,0%);stroke-opacity:1;stroke-miterlimit:10;" d="M 217.558594 122.308594 L 235.890625 125.085938 "/>
<path style="fill:none;stroke-width:1.2;stroke-linecap:butt;stroke-linejoin:miter;stroke:rgb(0%,0%,0%);stroke-opacity:1;stroke-miterlimit:10;" d="M 210.796875 105.042969 L 192.464844 102.265625 "/>
<path style="fill:none;stroke-width:1.2;stroke-linecap:butt;stroke-linejoin:miter;stroke:rgb(0%,0%,0%);stroke-opacity:1;stroke-miterlimit:10;" d="M 192.464844 102.265625 L 180.894531 116.753906 "/>
<path style="fill:none;stroke-width:1.2;stroke-linecap:butt;stroke-linejoin:miter;stroke:rgb(0%,0%,0%);stroke-opacity:1;stroke-miterlimit:10;" d="M 194.714844 106.4375 L 185.460938 118.027344 "/>
</g>
</svg>

<svg xmlns="http://www.w3.org/2000/svg" xmlns:xlink="http://www.w3.org/1999/xlink" width="300pt" height="300pt" viewBox="0 0 300 300"><defs><symbol overflow="visible"><path d="M.453 1.594v-7.938h4.5v7.938zm.5-.5h3.5v-6.938h-3.5zm0 0"/></symbol><symbol overflow="visible" id="a"><path d="M3.547-5.953c-.65 0-1.164.242-1.547.72-.375.48-.563 1.13-.563 1.952 0 .835.188 1.49.563 1.967.383.48.898.72 1.547.72.644 0 1.156-.24 1.53-.72.376-.476.564-1.132.564-1.968 0-.822-.187-1.474-.562-1.954-.375-.477-.887-.72-1.53-.72zm0-.734c.914 0 1.648.312 2.203.937.55.617.828 1.438.828 2.47 0 1.042-.277 1.87-.828 2.483-.555.617-1.29.922-2.203.922-.93 0-1.668-.305-2.22-.922C.774-1.41.5-2.237.5-3.28c0-1.033.273-1.853.828-2.47.55-.625 1.29-.938 2.22-.938zm0 0"/></symbol><symbol overflow="visible" id="b"><path d="M.89-6.563H2.08l2.906 5.485v-5.484h.86V0H4.656L1.75-5.484V0H.89zm0 0"/></symbol><symbol overflow="visible" id="c"><path d="M.89-6.563h.876v2.688H5v-2.688h.89V0H5v-3.125H1.766V0H.89zm0 0"/></symbol></defs><g><path fill="#fff" d="M0 0h300v300H0z"/><path d="M99.512 180.324l2.34-8.972" stroke-width="1.2" stroke="#f00" stroke-miterlimit="10" fill="none"/><path d="M101.852 171.352l2.34-8.97" stroke-width="1.2" stroke="#000" stroke-miterlimit="10" fill="none"/><path d="M95.29 179.223l2.34-8.97" stroke-width="1.2" stroke="#f00" stroke-miterlimit="10" fill="none"/><path d="M97.63 170.254l2.34-8.973" stroke-width="1.2" stroke="#000" stroke-miterlimit="10" fill="none"/><path d="M93.402 174.273h8v11h-8zm0 0" fill="#fff"/><use xlink:href="#a" x="93.402" y="182.937" fill="#f00"/><path d="M102.078 161.832l-6.598-6.512" stroke-width="1.2" stroke="#000" stroke-miterlimit="10" fill="none"/><path d="M95.48 155.32l-6.597-6.51" stroke-width="1.2" stroke="#00f" stroke-miterlimit="10" fill="none"/><path d="M102.078 161.832l17.88-4.918" stroke-width="1.2" stroke="#000" stroke-miterlimit="10" fill="none"/><path d="M88.883 148.81l-8.942 2.46" stroke-width="1.2" stroke="#00f" stroke-miterlimit="10" fill="none"/><path d="M79.94 151.27l-8.936 2.46" stroke-width="1.2" stroke="#000" stroke-miterlimit="10" fill="none"/><path d="M81.883 143.31h14v11h-14zm0 0" fill="#fff"/><g fill="#00f"><use xlink:href="#b" x="81.883" y="151.972"/><use xlink:href="#c" x="88.86" y="151.972"/></g><path d="M71.004 153.73l-13.2-13.023M66.62 155.53l-10.558-10.417M66.324 171.672l4.68-17.942M57.805 140.707l-17.875 4.918M39.93 145.625l-4.68 17.94M43.684 148.52l-3.746 14.355M35.25 163.566l13.2 13.024M48.45 176.59l17.874-4.918M49.078 171.89l14.3-3.933M119.957 156.914l13.2 13.02M133.156 169.934l8.938-2.457" stroke-width="1.2" stroke="#000" stroke-miterlimit="10" fill="none"/><path d="M142.094 167.477l8.937-2.46M151.03 165.016l6.532-17.356" stroke-width="1.2" stroke="#00f" stroke-miterlimit="10" fill="none"/><path d="M165.52 176.586l-7.243-5.785" stroke-width="1.2" stroke="#000" stroke-miterlimit="10" fill="none"/><path d="M158.277 170.8l-7.246-5.784" stroke-width="1.2" stroke="#00f" stroke-miterlimit="10" fill="none"/><path d="M148.03 159.516h7v11h-7zm0 0" fill="#fff"/><use xlink:href="#b" x="148.031" y="168.179" fill="#00f"/><path d="M157.563 147.66l9.257.422" stroke-width="1.2" stroke="#00f" stroke-miterlimit="10" fill="none"/><path d="M166.82 148.082l9.262.426" stroke-width="1.2" stroke="#000" stroke-miterlimit="10" fill="none"/><path d="M159.215 152.105l7.406.336" stroke-width="1.2" stroke="#00f" stroke-miterlimit="10" fill="none"/><path d="M166.62 152.44l7.41.34" stroke-width="1.2" stroke="#000" stroke-miterlimit="10" fill="none"/><path d="M154.563 142.16h7v11h-7zm0 0" fill="#fff"/><use xlink:href="#b" x="154.563" y="150.823" fill="#00f"/><path d="M176.082 148.508l4.922 17.875M176.082 148.508l11.57-14.488M181.004 166.383l-15.484 10.203M177.055 163.762l-12.387 8.16M181.004 166.383l17.35 6.527M198.355 172.91l14.333-11.762M202.56 175.105l11.463-9.41M201.38 191.207l-3.025-18.297M212.688 161.148l17.355 6.528M230.043 167.676l3.023 18.293M234.648 168.793l2.418 14.633M244.37 155.91l-14.327 11.766M233.066 185.97l8.676 3.26" stroke-width="1.2" stroke="#000" stroke-miterlimit="10" fill="none"/><path d="M241.742 189.23l8.676 3.266" stroke-width="1.2" stroke="#00f" stroke-miterlimit="10" fill="none"/><path d="M233.066 185.97l-14.332 11.764" stroke-width="1.2" stroke="#000" stroke-miterlimit="10" fill="none"/><path d="M250.418 192.496l7.168-5.883" stroke-width="1.2" stroke="#00f" stroke-miterlimit="10" fill="none"/><path d="M257.586 186.613l7.164-5.883" stroke-width="1.2" stroke="#000" stroke-miterlimit="10" fill="none"/><path d="M249.086 187.95l5.73-4.708" stroke-width="1.2" stroke="#00f" stroke-miterlimit="10" fill="none"/><path d="M254.816 183.242l5.73-4.707" stroke-width="1.2" stroke="#000" stroke-miterlimit="10" fill="none"/><path d="M247.418 186.996h7v11h-7zm0 0" fill="#fff"/><use xlink:href="#b" x="247.418" y="195.659" fill="#00f"/><path d="M264.75 180.73l-3.023-18.292M261.727 162.438l-17.356-6.528M258.453 165.867l-13.883-5.222M218.734 197.734l-17.355-6.527M218.535 192.996l-13.883-5.223M187.652 134.02l9.168 1.386" stroke-width="1.2" stroke="#000" stroke-miterlimit="10" fill="none"/><path d="M196.82 135.406l9.168 1.39" stroke-width="1.2" stroke="#00f" stroke-miterlimit="10" fill="none"/><path d="M190.14 129.984l7.333 1.11" stroke-width="1.2" stroke="#000" stroke-miterlimit="10" fill="none"/><path d="M197.473 131.094l7.336 1.113" stroke-width="1.2" stroke="#00f" stroke-miterlimit="10" fill="none"/><path d="M180.895 116.754l6.757 17.266" stroke-width="1.2" stroke="#000" stroke-miterlimit="10" fill="none"/><path d="M205.988 136.797l5.785-7.246" stroke-width="1.2" stroke="#00f" stroke-miterlimit="10" fill="none"/><path d="M211.773 129.55l5.786-7.24" stroke-width="1.2" stroke="#000" stroke-miterlimit="10" fill="none"/><path d="M202.988 131.297h7v11h-7zm0 0" fill="#fff"/><use xlink:href="#b" x="202.988" y="139.96" fill="#00f"/><path d="M217.56 122.31l-6.763-17.267M212.82 122.172l-5.41-13.813M217.56 122.31l18.33 2.776M210.797 105.043l-18.332-2.777M192.465 102.266l-11.57 14.488M194.715 106.438l-9.254 11.59" stroke-width="1.2" stroke="#000" stroke-miterlimit="10" fill="none"/></g></svg>
